Newaita-dark/apps/48/gnome-klotski.svg

<svg height="48pt" viewBox="0 0 48 48" width="48pt" xmlns="http://www.w3.org/2000/svg" xmlns:xlink="http://www.w3.org/1999/xlink"><linearGradient id="a" gradientUnits="userSpaceOnUse" x1="34.729887" x2="34.729887" y1="42.0509045" y2="44.03547050005"><stop offset="0" stop-opacity=".27451"/><stop offset="1" stop-opacity="0"/></linearGradient><linearGradient id="b"><stop offset="0" stop-opacity=".313725"/><stop offset=".222222" stop-opacity=".27451"/><stop offset="1" stop-opacity="0"/></linearGradient><radialGradient id="c" cx="450.908936" cy="189.579361" gradientTransform="matrix(.00000026 -.117199 -.210958 -.00000015 80.180539 95.392999)" gradientUnits="userSpaceOnUse" r="21.166656" xlink:href="#b"/><radialGradient id="d" cx="450.908936" cy="189.579361" gradientTransform="matrix(-.00000026 .117199 .210958 .00000015 -10.720785 -11.291218)" gradientUnits="userSpaceOnUse" r="21.166656" xlink:href="#b"/><radialGradient id="e" cx="450.908936" cy="189.579361" gradientTransform="matrix(-.00000026 -.117199 .210958 -.00000015 -10.720785 95.392999)" gradientUnits="userSpaceOnUse" r="21.166656" xlink:href="#b"/><radialGradient id="f" cx="450.908936" cy="189.579361" gradientTransform="matrix(.00000026 .117199 -.210958 .00000015 80.180536 -11.291219)" gradientUnits="userSpaceOnUse" r="21.166656" xlink:href="#b"/><linearGradient id="g"><stop offset="0" stop-color="#1976d2"/><stop offset="1" stop-color="#1e88e5"/></linearGradient><linearGradient id="h" gradientUnits="userSpaceOnUse" x1="11.90739400005" x2="11.90739400005" xlink:href="#g" y1="22.20524656251" y2="4.3441580001"/><linearGradient id="i" gradientUnits="userSpaceOnUse" x1="33.73760600005" x2="33.73760600005" xlink:href="#g" y1="42.05089156251" y2="24.1898030001"/><linearGradient id="j"><stop offset="0" stop-color="#689f38"/><stop offset="1" stop-color="#7cb342"/></linearGradient><linearGradient id="k" gradientUnits="userSpaceOnUse" x1="13.89195900005" x2="13.89195900005" xlink:href="#j" y1="38.08176356251" y2="28.15893524993"/><linearGradient id="l" gradientUnits="userSpaceOnUse" x1="35.72217100005" x2="35.72216809352" xlink:href="#j" y1="18.23611856251" y2="8.31329024993"/><path d="m28.777344 42.050781h11.90625v1.984375h-11.90625zm0 0" fill="url(#a)"/><path d="m40.683594 42.050781h3.96875v-1.984375h-3.96875zm0 0" fill="url(#c)"/><path d="m28.777344 42.050781h-3.96875v1.984375h3.96875zm0 0" fill="url(#d)"/><path d="m28.777344 42.050781h-3.96875v-1.984375h3.96875zm0 0" fill="url(#e)"/><path d="m40.683594 42.050781h3.96875v1.984375h-3.96875zm0 0" fill="url(#f)"/><path d="m5.953125 4.34375h13.890625c1.097656 0 1.988281.890625 1.988281 1.984375v13.890625c0 1.097656-.890625 1.988281-1.988281 1.988281h-13.890625c-1.09375 0-1.984375-.890625-1.984375-1.988281v-13.890625c0-1.09375.890625-1.984375 1.984375-1.984375zm0 0" fill="url(#h)"/><path d="m27.785156 24.191406h13.890625c1.097657 0 1.984375.886719 1.984375 1.984375v13.890625c0 1.097656-.886718 1.984375-1.984375 1.984375h-13.890625c-1.097656 0-1.984375-.886719-1.984375-1.984375v-13.890625c0-1.097656.886719-1.984375 1.984375-1.984375zm0 0" fill="url(#i)"/><path d="m9.921875 28.160156h5.953125c1.097656 0 1.984375.886719 1.984375 1.984375v5.953125c0 1.09375-.886719 1.984375-1.984375 1.984375h-5.953125c-1.09375 0-1.984375-.890625-1.984375-1.984375v-5.953125c0-1.097656.890625-1.984375 1.984375-1.984375zm0 0" fill="url(#k)"/><path d="m31.753906 8.3125h5.953125c1.097657 0 1.984375.890625 1.984375 1.984375v5.953125c0 1.097656-.886718 1.984375-1.984375 1.984375h-5.953125c-1.097656 0-1.984375-.886719-1.984375-1.984375v-5.953125c0-1.09375.886719-1.984375 1.984375-1.984375zm0 0" fill="url(#l)"/><path d="m27.785156 24.191406c-1.101562 0-1.984375.882813-1.984375 1.984375v.496094c0-1.101563.882813-1.984375 1.984375-1.984375h13.890625c1.097657 0 1.984375.882812 1.984375 1.984375v-.496094c0-1.101562-.886718-1.984375-1.984375-1.984375zm0 0" fill="#fff" fill-opacity=".392157"/><path d="m27.785156 42.050781c-1.101562 0-1.984375-.886719-1.984375-1.984375v-.496094c0 1.097657.882813 1.984376 1.984375 1.984376h13.890625c1.097657 0 1.984375-.886719 1.984375-1.984376v.496094c0 1.097656-.886718 1.984375-1.984375 1.984375zm0 0" fill-opacity=".235294"/><path d="m27.785156 24.050781c-1.175781 0-2.125.949219-2.125 2.125v13.890625c0 1.175782.949219 2.125 2.125 2.125h13.890625c1.175781 0 2.125-.949218 2.125-2.125v-13.890625c0-1.175781-.949219-2.125-2.125-2.125zm0 .28125h13.890625c1.023438 0 1.84375.816407 1.84375 1.84375v13.890625c0 1.023438-.820312 1.84375-1.84375 1.84375h-13.890625c-1.023437 0-1.84375-.820312-1.84375-1.84375v-13.890625c0-1.027343.820313-1.84375 1.84375-1.84375zm0 0" fill="#212121"/><path d="m5.953125 4.34375c-1.097656 0-1.984375.886719-1.984375 1.984375v.496094c0-1.097657.886719-1.984375 1.984375-1.984375h13.890625c1.101562 0 1.988281.886718 1.988281 1.984375v-.496094c0-1.097656-.886719-1.984375-1.988281-1.984375zm0 0" fill="#fff" fill-opacity=".392157"/><path d="m5.953125 22.207031c-1.097656 0-1.984375-.886719-1.984375-1.988281v-.496094c0 1.101563.886719 1.988282 1.984375 1.988282h13.890625c1.101562 0 1.988281-.886719 1.988281-1.988282v.496094c0 1.101562-.886719 1.988281-1.988281 1.988281zm0 0" fill-opacity=".235294"/><path d="m5.953125 4.203125c-1.175781 0-2.125.949219-2.125 2.125v13.894531c0 1.171875.949219 2.125 2.125 2.125h13.890625c1.175781 0 2.128906-.953125 2.128906-2.125v-13.894531c0-1.175781-.953125-2.125-2.128906-2.125zm0 .28125h13.890625c1.027344 0 1.847656.820313 1.847656 1.84375v13.894531c0 1.023438-.820312 1.84375-1.847656 1.84375h-13.890625c-1.023437 0-1.84375-.820312-1.84375-1.84375v-13.894531c0-1.023437.820313-1.84375 1.84375-1.84375zm0 0" fill="#212121"/><path d="m9.921875 28.160156c-1.097656 0-1.984375.882813-1.984375 1.984375v.496094c0-1.101563.886719-1.984375 1.984375-1.984375h5.953125c1.101562 0 1.984375.882812 1.984375 1.984375v-.496094c0-1.101562-.882813-1.984375-1.984375-1.984375zm0 0" fill="#fff" fill-opacity=".392157"/><path d="m9.921875 38.082031c-1.097656 0-1.984375-.886719-1.984375-1.984375v-.496094c0 1.097657.886719 1.984376 1.984375 1.984376h5.953125c1.101562 0 1.984375-.886719 1.984375-1.984376v.496094c0 1.097656-.882813 1.984375-1.984375 1.984375zm0 0" fill-opacity=".235294"/><path d="m105.823228 85.346318h63.493936c11.707216 0 21.164646 9.457431 21.164646 21.164646v63.493937c0 11.665552-9.45743 21.164645-21.164646 21.164645h-63.493936c-11.665553 0-21.164646-9.499093-21.164646-21.164645v-63.493937c0-11.707215 9.499093-21.164646 21.164646-21.164646zm0 0" fill="none" stroke="#212121" stroke-linecap="round" stroke-width="3" transform="matrix(.093759 0 0 .093759 0 20.158175)"/><path d="m31.753906 8.3125c-1.101562 0-1.984375.886719-1.984375 1.984375v.496094c0-1.097657.882813-1.984375 1.984375-1.984375h5.953125c1.097657 0 1.984375.886718 1.984375 1.984375v-.496094c0-1.097656-.886718-1.984375-1.984375-1.984375zm0 0" fill="#fff" fill-opacity=".392157"/><path d="m31.753906 18.234375c-1.101562 0-1.984375-.882813-1.984375-1.984375v-.496094c0 1.101563.882813 1.984375 1.984375 1.984375h5.953125c1.097657 0 1.984375-.882812 1.984375-1.984375v.496094c0 1.101562-.886718 1.984375-1.984375 1.984375zm0 0" fill-opacity=".235294"/><path d="m105.842663 85.324857h63.493937c11.707215 0 21.164645 9.499093 21.164645 21.164645v63.493937c0 11.707215-9.45743 21.164645-21.164645 21.164645h-63.493937c-11.707215 0-21.164645-9.45743-21.164645-21.164645v-63.493937c0-11.665552 9.45743-21.164645 21.164645-21.164645zm0 0" fill="none" stroke="#212121" stroke-linecap="round" stroke-width="3" transform="matrix(.093759 0 0 .093759 21.830209 .312531)"/></svg>

<?xml version="1.0" encoding="UTF-8"?>
<svg xmlns="http://www.w3.org/2000/svg" xmlns:xlink="http://www.w3.org/1999/xlink" width="48pt" height="48pt" viewBox="0 0 48 48" version="1.1">
<defs>
<linearGradient id="linear0" gradientUnits="userSpaceOnUse" x1="254" y1="233.5" x2="254" y2="254.666672" gradientTransform="matrix(0.093759,0,0,0.093759,10.915101,20.158178)">
<stop offset="0" style="stop-color:rgb(0%,0%,0%);stop-opacity:0.27451;"/>
<stop offset="1" style="stop-color:rgb(0%,0%,0%);stop-opacity:0;"/>
</linearGradient>
<radialGradient id="radial0" gradientUnits="userSpaceOnUse" cx="450.908936" cy="189.579361" fx="450.908936" fy="189.579361" r="21.166656" gradientTransform="matrix(0.000000261256,-0.117199,-0.210958,-0.000000152308,80.180539,95.392999)">
<stop offset="0" style="stop-color:rgb(0%,0%,0%);stop-opacity:0.313725;"/>
<stop offset="0.222222" style="stop-color:rgb(0%,0%,0%);stop-opacity:0.27451;"/>
<stop offset="1" style="stop-color:rgb(0%,0%,0%);stop-opacity:0;"/>
</radialGradient>
<radialGradient id="radial1" gradientUnits="userSpaceOnUse" cx="450.908936" cy="189.579361" fx="450.908936" fy="189.579361" r="21.166656" gradientTransform="matrix(-0.000000261256,0.117199,0.210958,0.000000152308,-10.720785,-11.291218)">
<stop offset="0" style="stop-color:rgb(0%,0%,0%);stop-opacity:0.313725;"/>
<stop offset="0.222222" style="stop-color:rgb(0%,0%,0%);stop-opacity:0.27451;"/>
<stop offset="1" style="stop-color:rgb(0%,0%,0%);stop-opacity:0;"/>
</radialGradient>
<radialGradient id="radial2" gradientUnits="userSpaceOnUse" cx="450.908936" cy="189.579361" fx="450.908936" fy="189.579361" r="21.166656" gradientTransform="matrix(-0.000000261256,-0.117199,0.210958,-0.000000152308,-10.720785,95.392999)">
<stop offset="0" style="stop-color:rgb(0%,0%,0%);stop-opacity:0.313725;"/>
<stop offset="0.222222" style="stop-color:rgb(0%,0%,0%);stop-opacity:0.27451;"/>
<stop offset="1" style="stop-color:rgb(0%,0%,0%);stop-opacity:0;"/>
</radialGradient>
<radialGradient id="radial3" gradientUnits="userSpaceOnUse" cx="450.908936" cy="189.579361" fx="450.908936" fy="189.579361" r="21.166656" gradientTransform="matrix(0.000000261256,0.117199,-0.210958,0.000000152308,80.180536,-11.291219)">
<stop offset="0" style="stop-color:rgb(0%,0%,0%);stop-opacity:0.313725;"/>
<stop offset="0.222222" style="stop-color:rgb(0%,0%,0%);stop-opacity:0.27451;"/>
<stop offset="1" style="stop-color:rgb(0%,0%,0%);stop-opacity:0;"/>
</radialGradient>
<linearGradient id="linear1" gradientUnits="userSpaceOnUse" x1="148.166672" y1="21.833334" x2="148.166672" y2="-168.666656" gradientTransform="matrix(0.093759,0,0,0.093759,-1.984565,20.158175)">
<stop offset="0" style="stop-color:rgb(9.803922%,46.27451%,82.352941%);stop-opacity:1;"/>
<stop offset="1" style="stop-color:rgb(11.764706%,53.333333%,89.803922%);stop-opacity:1;"/>
</linearGradient>
<linearGradient id="linear2" gradientUnits="userSpaceOnUse" x1="148.166672" y1="21.833334" x2="148.166672" y2="-168.666656" gradientTransform="matrix(0.093759,0,0,0.093759,19.845647,40.00382)">
<stop offset="0" style="stop-color:rgb(9.803922%,46.27451%,82.352941%);stop-opacity:1;"/>
<stop offset="1" style="stop-color:rgb(11.764706%,53.333333%,89.803922%);stop-opacity:1;"/>
</linearGradient>
<linearGradient id="linear3" gradientUnits="userSpaceOnUse" x1="148.166672" y1="21.833334" x2="148.166672" y2="-84.000008" gradientTransform="matrix(0.093759,0,0,0.093759,0.0000000332887,36.034692)">
<stop offset="0" style="stop-color:rgb(40.784314%,62.352941%,21.960784%);stop-opacity:1;"/>
<stop offset="1" style="stop-color:rgb(48.627451%,70.196078%,25.882353%);stop-opacity:1;"/>
</linearGradient>
<linearGradient id="linear4" gradientUnits="userSpaceOnUse" x1="148.166672" y1="21.833334" x2="148.166641" y2="-84.000008" gradientTransform="matrix(0.093759,0,0,0.093759,21.830212,16.189047)">
<stop offset="0" style="stop-color:rgb(40.784314%,62.352941%,21.960784%);stop-opacity:1;"/>
<stop offset="1" style="stop-color:rgb(48.627451%,70.196078%,25.882353%);stop-opacity:1;"/>
</linearGradient>
</defs>
<g id="surface1">
<path style=" stroke:none;fill-rule:nonzero;fill:url(#linear0);" d="M 28.777344 42.050781 L 40.683594 42.050781 L 40.683594 44.035156 L 28.777344 44.035156 Z M 28.777344 42.050781 "/>
<path style=" stroke:none;fill-rule:nonzero;fill:url(#radial0);" d="M 40.683594 42.050781 L 44.652344 42.050781 L 44.652344 40.066406 L 40.683594 40.066406 Z M 40.683594 42.050781 "/>
<path style=" stroke:none;fill-rule:nonzero;fill:url(#radial1);" d="M 28.777344 42.050781 L 24.808594 42.050781 L 24.808594 44.035156 L 28.777344 44.035156 Z M 28.777344 42.050781 "/>
<path style=" stroke:none;fill-rule:nonzero;fill:url(#radial2);" d="M 28.777344 42.050781 L 24.808594 42.050781 L 24.808594 40.066406 L 28.777344 40.066406 Z M 28.777344 42.050781 "/>
<path style=" stroke:none;fill-rule:nonzero;fill:url(#radial3);" d="M 40.683594 42.050781 L 44.652344 42.050781 L 44.652344 44.035156 L 40.683594 44.035156 Z M 40.683594 42.050781 "/>
<path style=" stroke:none;fill-rule:nonzero;fill:url(#linear1);" d="M 5.953125 4.34375 L 19.84375 4.34375 C 20.941406 4.34375 21.832031 5.234375 21.832031 6.328125 L 21.832031 20.21875 C 21.832031 21.316406 20.941406 22.207031 19.84375 22.207031 L 5.953125 22.207031 C 4.859375 22.207031 3.96875 21.316406 3.96875 20.21875 L 3.96875 6.328125 C 3.96875 5.234375 4.859375 4.34375 5.953125 4.34375 Z M 5.953125 4.34375 "/>
<path style=" stroke:none;fill-rule:nonzero;fill:url(#linear2);" d="M 27.785156 24.191406 L 41.675781 24.191406 C 42.773438 24.191406 43.660156 25.078125 43.660156 26.175781 L 43.660156 40.066406 C 43.660156 41.164062 42.773438 42.050781 41.675781 42.050781 L 27.785156 42.050781 C 26.6875 42.050781 25.800781 41.164062 25.800781 40.066406 L 25.800781 26.175781 C 25.800781 25.078125 26.6875 24.191406 27.785156 24.191406 Z M 27.785156 24.191406 "/>
<path style=" stroke:none;fill-rule:nonzero;fill:url(#linear3);" d="M 9.921875 28.160156 L 15.875 28.160156 C 16.972656 28.160156 17.859375 29.046875 17.859375 30.144531 L 17.859375 36.097656 C 17.859375 37.191406 16.972656 38.082031 15.875 38.082031 L 9.921875 38.082031 C 8.828125 38.082031 7.9375 37.191406 7.9375 36.097656 L 7.9375 30.144531 C 7.9375 29.046875 8.828125 28.160156 9.921875 28.160156 Z M 9.921875 28.160156 "/>
<path style=" stroke:none;fill-rule:nonzero;fill:url(#linear4);" d="M 31.753906 8.3125 L 37.707031 8.3125 C 38.804688 8.3125 39.691406 9.203125 39.691406 10.296875 L 39.691406 16.25 C 39.691406 17.347656 38.804688 18.234375 37.707031 18.234375 L 31.753906 18.234375 C 30.65625 18.234375 29.769531 17.347656 29.769531 16.25 L 29.769531 10.296875 C 29.769531 9.203125 30.65625 8.3125 31.753906 8.3125 Z M 31.753906 8.3125 "/>
<path style=" stroke:none;fill-rule:nonzero;fill:rgb(100%,100%,100%);fill-opacity:0.392157;" d="M 27.785156 24.191406 C 26.683594 24.191406 25.800781 25.074219 25.800781 26.175781 L 25.800781 26.671875 C 25.800781 25.570312 26.683594 24.6875 27.785156 24.6875 L 41.675781 24.6875 C 42.773438 24.6875 43.660156 25.570312 43.660156 26.671875 L 43.660156 26.175781 C 43.660156 25.074219 42.773438 24.191406 41.675781 24.191406 Z M 27.785156 24.191406 "/>
<path style=" stroke:none;fill-rule:nonzero;fill:rgb(0%,0%,0%);fill-opacity:0.235294;" d="M 27.785156 42.050781 C 26.683594 42.050781 25.800781 41.164062 25.800781 40.066406 L 25.800781 39.570312 C 25.800781 40.667969 26.683594 41.554688 27.785156 41.554688 L 41.675781 41.554688 C 42.773438 41.554688 43.660156 40.667969 43.660156 39.570312 L 43.660156 40.066406 C 43.660156 41.164062 42.773438 42.050781 41.675781 42.050781 Z M 27.785156 42.050781 "/>
<path style=" stroke:none;fill-rule:nonzero;fill:rgb(12.941177%,12.941177%,12.941177%);fill-opacity:1;" d="M 27.785156 24.050781 C 26.609375 24.050781 25.660156 25 25.660156 26.175781 L 25.660156 40.066406 C 25.660156 41.242188 26.609375 42.191406 27.785156 42.191406 L 41.675781 42.191406 C 42.851562 42.191406 43.800781 41.242188 43.800781 40.066406 L 43.800781 26.175781 C 43.800781 25 42.851562 24.050781 41.675781 24.050781 Z M 27.785156 24.332031 L 41.675781 24.332031 C 42.699219 24.332031 43.519531 25.148438 43.519531 26.175781 L 43.519531 40.066406 C 43.519531 41.089844 42.699219 41.910156 41.675781 41.910156 L 27.785156 41.910156 C 26.761719 41.910156 25.941406 41.089844 25.941406 40.066406 L 25.941406 26.175781 C 25.941406 25.148438 26.761719 24.332031 27.785156 24.332031 Z M 27.785156 24.332031 "/>
<path style=" stroke:none;fill-rule:nonzero;fill:rgb(100%,100%,100%);fill-opacity:0.392157;" d="M 5.953125 4.34375 C 4.855469 4.34375 3.96875 5.230469 3.96875 6.328125 L 3.96875 6.824219 C 3.96875 5.726562 4.855469 4.839844 5.953125 4.839844 L 19.84375 4.839844 C 20.945312 4.839844 21.832031 5.726562 21.832031 6.824219 L 21.832031 6.328125 C 21.832031 5.230469 20.945312 4.34375 19.84375 4.34375 Z M 5.953125 4.34375 "/>
<path style=" stroke:none;fill-rule:nonzero;fill:rgb(0%,0%,0%);fill-opacity:0.235294;" d="M 5.953125 22.207031 C 4.855469 22.207031 3.96875 21.320312 3.96875 20.21875 L 3.96875 19.722656 C 3.96875 20.824219 4.855469 21.710938 5.953125 21.710938 L 19.84375 21.710938 C 20.945312 21.710938 21.832031 20.824219 21.832031 19.722656 L 21.832031 20.21875 C 21.832031 21.320312 20.945312 22.207031 19.84375 22.207031 Z M 5.953125 22.207031 "/>
<path style=" stroke:none;fill-rule:nonzero;fill:rgb(12.941177%,12.941177%,12.941177%);fill-opacity:1;" d="M 5.953125 4.203125 C 4.777344 4.203125 3.828125 5.152344 3.828125 6.328125 L 3.828125 20.222656 C 3.828125 21.394531 4.777344 22.347656 5.953125 22.347656 L 19.84375 22.347656 C 21.019531 22.347656 21.972656 21.394531 21.972656 20.222656 L 21.972656 6.328125 C 21.972656 5.152344 21.019531 4.203125 19.84375 4.203125 Z M 5.953125 4.484375 L 19.84375 4.484375 C 20.871094 4.484375 21.691406 5.304688 21.691406 6.328125 L 21.691406 20.222656 C 21.691406 21.246094 20.871094 22.066406 19.84375 22.066406 L 5.953125 22.066406 C 4.929688 22.066406 4.109375 21.246094 4.109375 20.222656 L 4.109375 6.328125 C 4.109375 5.304688 4.929688 4.484375 5.953125 4.484375 Z M 5.953125 4.484375 "/>
<path style=" stroke:none;fill-rule:nonzero;fill:rgb(100%,100%,100%);fill-opacity:0.392157;" d="M 9.921875 28.160156 C 8.824219 28.160156 7.9375 29.042969 7.9375 30.144531 L 7.9375 30.640625 C 7.9375 29.539062 8.824219 28.65625 9.921875 28.65625 L 15.875 28.65625 C 16.976562 28.65625 17.859375 29.539062 17.859375 30.640625 L 17.859375 30.144531 C 17.859375 29.042969 16.976562 28.160156 15.875 28.160156 Z M 9.921875 28.160156 "/>
<path style=" stroke:none;fill-rule:nonzero;fill:rgb(0%,0%,0%);fill-opacity:0.235294;" d="M 9.921875 38.082031 C 8.824219 38.082031 7.9375 37.195312 7.9375 36.097656 L 7.9375 35.601562 C 7.9375 36.699219 8.824219 37.585938 9.921875 37.585938 L 15.875 37.585938 C 16.976562 37.585938 17.859375 36.699219 17.859375 35.601562 L 17.859375 36.097656 C 17.859375 37.195312 16.976562 38.082031 15.875 38.082031 Z M 9.921875 38.082031 "/>
<path style="fill:none;stroke-width:3;stroke-linecap:round;stroke-linejoin:miter;stroke:rgb(12.941177%,12.941177%,12.941177%);stroke-opacity:1;stroke-miterlimit:4;" d="M 105.823228 85.346318 L 169.317164 85.346318 C 181.02438 85.346318 190.48181 94.803749 190.48181 106.510964 L 190.48181 170.004901 C 190.48181 181.670453 181.02438 191.169546 169.317164 191.169546 L 105.823228 191.169546 C 94.157675 191.169546 84.658582 181.670453 84.658582 170.004901 L 84.658582 106.510964 C 84.658582 94.803749 94.157675 85.346318 105.823228 85.346318 Z M 105.823228 85.346318 " transform="matrix(0.093759,0,0,0.093759,0,20.158175)"/>
<path style=" stroke:none;fill-rule:nonzero;fill:rgb(100%,100%,100%);fill-opacity:0.392157;" d="M 31.753906 8.3125 C 30.652344 8.3125 29.769531 9.199219 29.769531 10.296875 L 29.769531 10.792969 C 29.769531 9.695312 30.652344 8.808594 31.753906 8.808594 L 37.707031 8.808594 C 38.804688 8.808594 39.691406 9.695312 39.691406 10.792969 L 39.691406 10.296875 C 39.691406 9.199219 38.804688 8.3125 37.707031 8.3125 Z M 31.753906 8.3125 "/>
<path style=" stroke:none;fill-rule:nonzero;fill:rgb(0%,0%,0%);fill-opacity:0.235294;" d="M 31.753906 18.234375 C 30.652344 18.234375 29.769531 17.351562 29.769531 16.25 L 29.769531 15.753906 C 29.769531 16.855469 30.652344 17.738281 31.753906 17.738281 L 37.707031 17.738281 C 38.804688 17.738281 39.691406 16.855469 39.691406 15.753906 L 39.691406 16.25 C 39.691406 17.351562 38.804688 18.234375 37.707031 18.234375 Z M 31.753906 18.234375 "/>
<path style="fill:none;stroke-width:3;stroke-linecap:round;stroke-linejoin:miter;stroke:rgb(12.941177%,12.941177%,12.941177%);stroke-opacity:1;stroke-miterlimit:4;" d="M 105.842663 85.324857 L 169.3366 85.324857 C 181.043815 85.324857 190.501245 94.82395 190.501245 106.489502 L 190.501245 169.983439 C 190.501245 181.690654 181.043815 191.148084 169.3366 191.148084 L 105.842663 191.148084 C 94.135448 191.148084 84.678018 181.690654 84.678018 169.983439 L 84.678018 106.489502 C 84.678018 94.82395 94.135448 85.324857 105.842663 85.324857 Z M 105.842663 85.324857 " transform="matrix(0.093759,0,0,0.093759,21.830209,0.312531)"/>
</g>
</svg>
